X:1
T:Salvator (Jewson), 87.87 D
T:Salvator (Jewson), 87.87 D
T:James Pentland Jewson (1825-1889)
T:Public Domain Courtesy of the Cyber Hymnal™
C:James Pentland Jewson (1825-1889)
Z:Public Domain
Z:Courtesy of the Cyber Hymnal™
%%score ( 1 2 ) ( 3 4 )
L:1/8
Q:1/4=112
M:4/4
K:Ab
V:1 treble 
V:2 treble 
V:3 bass 
V:4 bass 
V:1
 [CE]2 [CA]2 [DA]2 [DG]2 | E2 [Ec]2 [Fc]2 [FB]2 | [Gd]2 G2 [FA]2 c2 | [=Dc]2 [DB]2 [EB]4 | %4
 [Ed]2 [Ee]2 [Ec]2 [Ec]2 | [Ff]2 [Fc]2 [Fe]2 [Fd]2 | [DF]2 [EG]2 [EA]2 [FB]2 | [Ec]2 B2 [CA]4 | %8
 A3 A A2 A2 | G2 F2 D2 C2 | [CA]3 [CA] [FA]2 [FA]2 | [Fd]2 B2 [=Ec]4 | [CE]2 [CA]2 [DA]2 [DG]2 | %13
 E2 [Ec]2 [Fc]2 [FB]2 | [Gd]2 G2 [FA]2 [FB]2 | [DF]2 G2 [CA]4 |] %16
V:2
 x8 | E2 x6 | x2 G2 (FE) x2 | x8 | x8 | x8 | x8 | x2 (ED) x4 | A3 A A2 A2 | G2 F2 D2 C2 | x8 | %11
 x2 (GF) x4 | x8 | E2 x6 | x2 G2 x4 | x2 (ED) x4 |] %16
V:3
 [A,,A,]2 [A,,E,]2 [B,,E,]2 [B,,G,]2 | [C,A,]2 [C,A,]2 [D,A,]2 [D,B,]2 | %2
 [E,B,]2 [E,D]2 [F,C]2 [A,,A,]2 | [B,,A,]2 [B,,A,]2 [E,G,]4 | [G,B,]2 [G,B,]2 A,2 [A,C]2 | %5
 [=A,C]2 [F,A,]2 B,2 [B,,B,]2 | [D,A,]2 [D,B,]2 [C,A,]2 [D,A,]2 | [E,A,]2 [E,G,]2 [A,,A,]4 | %8
 A,3 A, A,2 A,2 | G,2 F,2 D,2 C,2 | [F,C]3 [F,C] [D,D]2 [D,D]2 | [B,,F,]2 [D,F,]2 [C,G,]4 | %12
 [A,,A,]2 [A,,E,]2 [B,,E,]2 [B,,G,]2 | [C,A,]2 [C,A,]2 [D,A,]2 [D,B,]2 | %14
 [E,B,]2 [=E,D]2 [F,C]2 [B,,D]2 | [E,B,]2 [E,B,]2 [A,,A,]4 |] %16
V:4
 x8 | x8 | x8 | x8 | x4 A,2 x2 | x4 B,2 x2 | x8 | x8 | A,3 A, A,2 A,2 | G,2 F,2 D,2 C,2 | x8 | x8 | %12
 x8 | x8 | x8 | x8 |] %16

